svg/food/lollipop_line.svg

<?xml version="1.0" encoding="UTF-8"?>
<svg width="24px" height="24px" viewBox="0 0 24 24" version="1.1" xmlns="http://www.w3.org/2000/svg" xmlns:xlink="http://www.w3.org/1999/xlink">
    <title>lollipop_line</title>
    <g id="页面-1" stroke="none" stroke-width="1" fill="none" fill-rule="evenodd">
        <g id="Food" transform="translate(-288.000000, 0.000000)">
            <g id="lollipop_line" transform="translate(288.000000, 0.000000)">
                 <path d="M24,0 L24,24 L0,24 L0,0 L24,0 Z M12.5934901,23.257841 L12.5819402,23.2595131 L12.5108777,23.2950439 L12.4918791,23.2987469 L12.4918791,23.2987469 L12.4767152,23.2950439 L12.4056548,23.2595131 C12.3958229,23.2563662 12.3870493,23.2590235 12.3821421,23.2649074 L12.3780323,23.275831 L12.360941,23.7031097 L12.3658947,23.7234994 L12.3769048,23.7357139 L12.4804777,23.8096931 L12.4953491,23.8136134 L12.4953491,23.8136134 L12.5071152,23.8096931 L12.6106902,23.7357139 L12.6232938,23.7196733 L12.6232938,23.7196733 L12.6266527,23.7031097 L12.609561,23.275831 C12.6075724,23.2657013 12.6010112,23.2592993 12.5934901,23.257841 L12.5934901,23.257841 Z M12.8583906,23.1452862 L12.8445485,23.1473072 L12.6598443,23.2396597 L12.6498822,23.2499052 L12.6498822,23.2499052 L12.6471943,23.2611114 L12.6650943,23.6906389 L12.6699349,23.7034178 L12.6699349,23.7034178 L12.678386,23.7104931 L12.8793402,23.8032389 C12.8914285,23.8068999 12.9022333,23.8029875 12.9078286,23.7952264 L12.9118235,23.7811639 L12.8776777,23.1665331 C12.8752882,23.1545897 12.8674102,23.1470016 12.8583906,23.1452862 L12.8583906,23.1452862 Z M12.1430473,23.1473072 C12.1332178,23.1423925 12.1221763,23.1452606 12.1156365,23.1525954 L12.1099173,23.1665331 L12.0757714,23.7811639 C12.0751323,23.7926639 12.0828099,23.8018602 12.0926481,23.8045676 L12.108256,23.8032389 L12.3092106,23.7104931 L12.3186497,23.7024347 L12.3186497,23.7024347 L12.3225043,23.6906389 L12.340401,23.2611114 L12.337245,23.2485176 L12.337245,23.2485176 L12.3277531,23.2396597 L12.1430473,23.1473072 Z" id="MingCute" fill-rule="nonzero"></path>
                <path d="M2,11 C2,6.02944 6.02944,2 11,2 C15.9706,2 20,6.02944 20,11 C20,13.125 19.2635,15.078 18.0319,16.6177 L21.7071,20.2929 C22.0976,20.6834 22.0976,21.3166 21.7071,21.7071 C21.3166,22.0976 20.6834,22.0976 20.2929,21.7071 L16.6177,18.0319 C15.078,19.2635 13.125,20 11,20 C6.02944,20 2,15.9706 2,11 Z M11,4 C7.13401,4 4,7.13401 4,11 C4,14.5051 6.57625,17.4086 9.93852,17.92 C8.5837,17.5449 7.37155,16.7502 6.4845,15.6368 C5.37638,14.2458 4.86646,12.4715 5.06691,10.7053 C5.41073,7.65219 8.16438,5.45576 11.2173,5.79931 C12.443,5.93695 13.5638,6.55593 14.333,7.52006 C15.1023,8.48419 15.4569,9.71445 15.3189,10.9402 C15.0767,13.0916 13.1366,14.6396 10.988,14.3984 C10.1075,14.3023 9.30152,13.8595 8.74793,13.1679 C8.1945,12.4763 7.93907,11.593 8.03815,10.7119 C8.21663,9.13771 9.63688,8.00582 11.2112,8.18305 C12.1905,8.2933 12.9208,9.11897 12.9938,10.0538 C13.08,11.1574 12.2486,11.9998 11,11.9998 C10.5661,11.9998 10.1967,11.7235 10.0583,11.3371 L10.0239,11.218 L10.0258,11.2365 C10.0484,11.4344 10.1152,11.6255 10.2219,11.7952 L10.3094,11.9181 C10.5308,12.1947 10.8531,12.3718 11.2081,12.4106 C12.2622,12.5289 13.2128,11.7705 13.3315,10.7164 C13.4101,10.0179 13.208,9.31685 12.7696,8.76742 C12.3313,8.21798 11.6926,7.86525 10.9939,7.78679 C9.03831,7.56672 7.27457,8.97356 7.05425,10.93 C6.91355,12.1698 7.27131,13.4147 8.04877,14.3905 C8.82626,15.3665 9.95972,15.9934 11.1995,16.1333 C12.7257,16.3054 14.5413,15.7105 15.892,14.633 C17.1258,13.6488 17.7889,12.3937 17.9761,10.7276 C17.9796,10.6965 17.9845,10.6658 17.9907,10.6357 C17.8012,6.93905 14.7438,4 11,4 Z" id="形状" fill="#09244B"></path>
            </g>
        </g>
    </g>
</svg>

<svg xmlns="http://www.w3.org/2000/svg" width="24" height="24"><g fill="none" fill-rule="evenodd"><path d="M24 0v24H0V0h24ZM12.593 23.258l-.011.002-.071.035-.02.004-.014-.004-.071-.035c-.01-.004-.019-.001-.024.005l-.004.01-.017.428.005.02.01.013.104.074.015.004.012-.004.104-.074.012-.016.004-.017-.017-.427c-.002-.01-.009-.017-.017-.018Zm.265-.113-.013.002-.185.093-.01.01-.003.011.018.43.005.012.008.007.201.093c.012.004.023 0 .029-.008l.004-.014-.034-.614c-.003-.012-.01-.02-.02-.022Zm-.715.002a.023.023 0 0 0-.027.006l-.006.014-.034.614c0 .012.007.02.017.024l.015-.002.201-.093.01-.008.004-.011.017-.43-.003-.012-.01-.01-.184-.092Z"/><path fill="#09244B" d="M2 11a9 9 0 1 1 16.032 5.618l3.675 3.675a1 1 0 0 1-1.414 1.414l-3.675-3.675A9 9 0 0 1 2 11Zm9-7a7 7 0 0 0-1.061 13.92 6.703 6.703 0 0 1-4.872-7.215 5.563 5.563 0 0 1 6.15-4.906 4.65 4.65 0 0 1 4.102 5.141 3.92 3.92 0 0 1-4.331 3.458 3.333 3.333 0 0 1-2.95-3.686 2.87 2.87 0 0 1 3.173-2.529c.98.11 1.71.936 1.783 1.87C13.08 11.158 12.249 12 11 12a1 1 0 0 1-.942-.663l-.034-.119.002.018c.022.198.09.39.196.56l.087.122c.222.277.544.454.9.493a1.921 1.921 0 0 0 2.123-1.695 2.65 2.65 0 0 0-2.338-2.93 3.564 3.564 0 0 0-3.94 3.144 4.702 4.702 0 0 0 4.146 5.203c1.526.172 3.341-.422 4.692-1.5 1.234-.984 1.897-2.24 2.084-3.905.004-.031.009-.062.015-.092A7 7 0 0 0 11 4Z"/></g></svg>
